X: 27
T: 24. DANCE TUNE
B: Sam Bayard, "Hill Country Tunes" 1944 #24
N: Copied from manuscript of Denune Provance, Peachen, Fayette County, PA, Sep 21 1943.
S: Learned from traditional players about Dunbar.
R: jig
M: 6/8
L: 1/8
Z: 2010 John Chambers <jc:trillian.mit.edu>
K: F
   a2g fed | c2A c2f | ege cde | fef a3 |
   a2g fed | c2A c2f | ege cde | f6 :|
|: g3  f3 | ege c3  | =BdB GAB | c=Bc g3 |
   g3  f3 | ege c3  | =BdB GAB | c6 :|

%%sep 2 1 500
%%sep 1 1 500

